!!!!SEGMENT: pl-wnifc--6802-n--003_worobecki-jozef--mazur-no-2.krn
!!!cenid: 18xx:4051
!!!COM: Worobecki, Józef
!!!COM-rismID: pe50048108
!!!CDT:
!!!CNT:
!!!OTL: Mazur No. 2
!!!PDT:
!!!AGN:
!!!SMS-siglum: PL-Wnifc
!!!SMS-shelfmark: 6802/n
!!!SMS-shelfwork: 003 W
!!!SMS-variant:
!!!SMS-altvar:
!!!NIFC-rismSourceID: 1001158043
!!!NIFC-rismChildID: 1001158043
!!!NIFC-islandoraID: nifc:213559
!!!URL-pdf-islandora: https://repozytorium.nifc.pl/islandora/object/nifc%3A213559/datastream/PDF/view
!!!URL-scan: https://polish.musicsources.pl/pl/lokalizacje/galeria/druki-muzyczne/16922-3-mazury/3 @EN{Scan on Polish Music Sources Website} @PL{Skany w portalu Dziedzictwo Muzyki Polskiej w otwartym dostępie}
!!!IIIF:
!!!ONB-nifc: UWAGA: w zbiorze: 1. Introdukcja, 2. Mazur No. 1, 3. Mazur No. 2, 4. Mazur No. 3, 5. Coda
!!!AIN: 2 piano
!!!key: b
**kern	**kern	**dynam
*part2	*part1	*part1
*staff2	*staff1	*
*I"Piano	*I"Piano	*
*I'pf	*I'pf	*
*ICklav	*ICklav	*
*Ipiano	*Ipiano	*
*clefF4	*clefG2	*
*k[f#c#]	*k[f#c#]	*
*b:	*b:	*
*M3/8	*M3/8	*
=1	=1	=1
!LO:TX:t=[segno]	!LO:TX:t=[segno]	!
.	16qqB/LL	f
.	16qqd/	.
!LO:TX:a:t=P:problem:mixed beam	!LO:TX:a:i:t=risoluto.	!
.	16qqf#/JJ	.
8BBB/L 8BB/	8B/ 8f#/ 8b/	.
8F#\ 8B\ 8d\	8b\L 8dd\ 8ff#\	.
8F#\J 8B\ 8d\	8dd\J 8ff#\ 8bb\	.
=2	=2	=2
!	!LO:TUP:a:problem:klamra łukowa	!
8F#\L 8A#X\ 8e\	24cc#\LL 24ccc#\	.
.	24dd\ 24ddd\	.
.	24cc#\JJ 24ccc#\	.
8F#\ 8B\ 8d\	8b\L 8bb\	.
8F#\J 8B\ 8d\	8ff#\J	.
=3	=3	=3
!LO:TX:a:t=P:problem:mixed beam	!	!
8BBB/L 8DD/ 8FF#/ 8BB/	8b\L 8dd\ 8ff#\	.
8F#\ 8B\ 8d\	8dd\ 8ff#\ 8bb\	.
8F#\J 8B\ 8d\	8ff#\J 8bb\ 8ddd\	.
=4	=4	=4
!	!LO:TUP:a:problem:klamra łukowa	!
8F#\L 8A#X\ 8e\	24cc#\LL 24ccc#\	.
.	24dd\ 24ddd\	.
.	24cc#\JJ 24ccc#\	.
8F#\ 8B\ 8d\	8.b\L 8.bb\	.
8F#\J 8B\ 8d\	.	.
.	16dd\Jk 16ddd\	.
!!LO:LB:g=original	!	!
=5	=5	=5
8FF#/L 8F#/	8ff#\L 8fff#\	mf
8F#\ 8A#X\ 8e\	8.cc#\ 8.ee\ 8.ccc#\	.
8F#\J 8A#\ 8e\	.	.
.	16ee\Jk 16eee\	.
=6	=6	=6
!LO:TX:a:t=P:problem:mixed beam	!	!
8BBB/L 8BB/	16.dd\LL 16.ddd\	.
.	32cc#\JJk 32ccc#\	.
8F#\ 8B\ 8d\	8b\L 8bb\	.
8F#\J 8B\ 8d\	8dd\J 8ddd\	.
=7	=7	=7
8FF#/L 8F#/	(16.cc#\LL 16.ccc#\	.
.	32ff#\K	.
8F#\ 8A#X\ 8e\	16.ee#X\	.
.	32ff#\K	.
8F#\J 8c#\ 8e\	16.gg#X\	.
.	32aa#X\JJk)	.
=8	=8	=8
!LO:TX:a:t=P:problem:mixed beam	!	!
8BBB/L 8BB/	16.bb\LL	.
.	32ddd\JJk	.
8F#\ 8B\ 8d\	8gg\L 8ggg\	.
8F#\J 8B\ 8d\	8ff#\J 8fff#\	.
=9	=9	=9
8FF#/L 8BB/ 8F#/	16.ff#\LL 16.fff#\	.
.	32ff#\JJk 32fff#\	.
8F#\ 8A#X\ 8e\	8cc#\L 8ccc#\	.
8F#\J 8A#\ 8e\	8ee\J 8eee\	.
!!LO:LB:g=original	!	!
=10	=10	=10
!LO:TX:a:t=P:problem:mixed beam	!	!
8BBB/L 8BB/	16.dd\LL 16.ddd\	.
.	32cc#\JJk 32ccc#\	.
8F#\ 8B\ 8d\	8b\L 8bb\	.
8F#\J 8B\ 8d\	8dd\J 8ddd\	.
=11	=11	=11
8FF#/L 8F#/	(16.cc#\LL 16.ccc#\	.
.	32ff#\K	.
8F#\ 8A#X\ 8e\	16.ee#X\	.
.	32ff#\K	.
8F#\J 8c#\ 8e\	16.gg#X\	.
.	32aa#X\JJk)	.
=12	=12	=12
8B\ 8d\	16.ccc#\LL	.
.	32bb\JJk	.
!	!LO:TX:b:i:t=fine	!
4BB/	4dd\ 4bb\	.
=13!|:	=13!|:	=13!|:
8DD/L 8D/	4dd\ 4ff#\ 4aa\	.
8D\ 8F#\ 8A\	.	.
8D\J 8G\ 8B\	16dd\LL 16ddd\	.
.	16b\JJ 16bb\	.
=14	=14	=14
8DD/L 8D/	16a\LL 16aa\	.
.	16a\JJ 16aa\	.
8D\ 8F#\ 8A\	8a\L 8aa\	.
8D\J 8F#\ 8A\	8f#\J 8ff#\	.
=15	=15	=15
8DD/L 8D/	16.dd\LL 16.ff#\ 16.aa\	.
.	32dd\JJk 32ff#\ 32aa\	.
8D\ 8F#\ 8A\	8dd\L 8ff#\ 8aa\	.
8D\J 8G\ 8B\	16dd\L 16ddd\	.
.	16b\JJ 16bb\	.
!!LO:PB:g=original	!	!
=16	=16	=16
8DD/L 8D/	16a\LL 16aa\	.
.	16a\JJ 16aa\	.
8D\ 8F#\ 8A\	8a\L 8aa\	.
8D\J 8F#\ 8A\	8f#\J 8ff#\	.
=17	=17	=17
8DD/L 8D/	16.ff#\LL 16.aa\	.
.	32ff#\JJk 32aa\	.
8D\ 8F#\ 8A\	8ff#\L 8aa\	.
8D#X\^^J 8F#\ 8A\	8ff#\^^J 8bb\	.
=18	=18	=18
.	8qaa/	.
8EE/L 8E/	(16.gg\LL	.
.	32ff#\JJk	.
8E\ 8G\ 8B\	8gg\L	.
8E\J 8G\ 8B\	8ee\J)	.
=19	=19	=19
!LO:TX:a:t=P:problem:mixed beam	!	!
8AAA/L 8AA/	(16.gg\LL	.
.	32ff#\K	.
8A\ 8c#\ 8g\	16.ee\	.
.	32ff#\K	.
8A\J 8c#\ 8g\	16.gg\	.
.	32aa\JJk)	.
!!LO:LB:g=original	!	!
=20	=20	=20
!LO:TX:a:t=P:problem:mixed beam	!	!
.	8qgg/	.
8DD/L 8D/	(16ff#\LL	.
.	16ee#X\JJ	.
8A\ 8d\ 8f#\	8ff#\L	.
8A\J 8d\ 8f#\	8dd\J)	.
=21	=21	=21
8DD/L 8D/	(16.aa\LL	.
.	32gg\K	.
8D\ 8F#\ 8A\	16.ff#\	.
.	32gg\K	.
8D#X\J 8F#\ 8A\ 8B\	16.aa\	.
.	32bb\JJk)	.
=22	=22	=22
.	8qaa/	.
8EE/L 8E/	(16.gg\LL	.
.	32ff#\JJk	.
8E\ 8G\ 8B\	8gg\L	.
8E\J 8G\ 8B\	8ee\J)	.
=23	=23	=23
!LO:TX:a:t=P:problem:mixed beam	!	!
8AAA/L 8AA/	(16.gg\LL	.
.	32ff#\K	.
8A\ 8c#\ 8g\	16.ee\	.
.	32ff#\K	.
8A\J 8c#\ 8g\	16.gg\	.
.	32aa\JJk)	.
=24	=24	=24
8DD/L 8D/	(16.dd\LL	<
.	32ee\JJk	.
8A\ 8d\ 8f#\	4ff#\)	[
!LO:TX:b:i:t=d.S.al Fine	!	!
8A#X\J 8c#\ 8g\ 8a#X\	.	.
!!LO:LB:g=original	!	!
=25||	=25||	=25||
*k[f#]	*k[f#]	*
!	!LO:TX:a:i:t=dolce	!
!	!LO:TX:a:B:t=Trio	!
8GG/L 8G/	(16.d/LL	p
.	32g/K	.
8D\ 8G\ 8B\	16.f#/	.
.	32g/K	.
8D\J 8G\ 8B\	16.a/	.
.	32g/JJk)	.
=26	=26	=26
8CC/L 8C/	16.f#/LL	.
.	32e/JJk	.
8C\ 8E\ 8A\	8.cc\^^L	.
8C\J 8E\ 8A\	.	.
.	16b\Jk	.
=27	=27	=27
8DD/L 8D/	(16a/LL	.
.	16g#X/	.
8D\ 8F#\ 8A\	16a/	.
.	16a#X/	.
8D#X\J 8F#\ 8A\ 8B\	16b\	.
.	16f#/JJ)	.
!!LO:LB:g=original	!	!
=28	=28	=28
8EE\L 8E\	16a/LL	.
.	16g#X/JJ	.
8E\J 8G\ 8B\	8gn\L	.
8ryy	8g\J 8gg\	.
=29	=29	=29
8CC#X/L 8C#X/	8.a^/L 8.aa/	.
8A\ 8c#X\ 8g\	.	.
.	16g/L 16gg/	.
8A\J 8c#\ 8g\	16f#\ 16ff#\	.
.	16e/JJ 16ee/	.
=30	=30	=30
8DD/L 8D/	(16e\LL 16ee\	.
.	16d\JJ) 16dd\	.
8D\ 8G\ 8B\	8.g\L 8.gg\	.
8D\J 8G\ 8B\	.	.
.	16b\Jk	.
=31	=31	=31
8DD/L 8D/	(16.a/LL	.
.	32dd\K	.
8D\ 8F#\ 8c\	16.cc#X\	.
.	32dd\K	.
8D\J 8A\ 8c\	16.ee\	.
.	32ff#\JJk)	.
=32	=32	=32
8GG/L 8G/	(16.gg\LL	.
.	32bb\K	.
8D\ 8G\ 8B\	16.ddd\	.
.	32ccc#X\K	.
8D\J 8G\ 8B\	16.ddd\	.
.	32eee\JJk)	.
!!LO:LB:g=original	!	!
=33	=33	=33
8CC/L 8C/	8.dd\L 8.ddd\	.
8C\ 8E\ 8A\	.	.
.	16cc\L 16cccn\	.
8C\J 8E\ 8A\	16e/ 16ee/	.
.	16f#\JJ 16ff#\	.
=34	=34	=34
8DD/L 8D/	16a\LL 16aa\	.
.	16g\JJ 16gg\	.
8D\ 8G\ 8B\	8f#^\L 8ff#\	.
8D\J 8G\ 8B\	8e\J 8ee\	.
=35	=35	=35
.	(8qd/	.
8DD/L 8D/	(16.dd\LL)	.
.	32dd\K	.
8D\ 8F#\ 8c\	16.cc#X\	.
.	32dd\K	.
8D\J 8F#\ 8c\	16.ee\	.
.	32ff#\JJk)	.
=36	=36	=36
8F#\ 8B\	(16aa\LL	.
.	16gg\JJ)	.
!LO:TX:b:i:t=Mazur d.C. al Fine.	!	!
4GGG/ 4GG/	4b\ 4gg\	.
==	==	==
*-	*-	*-
!!!system-decoration: {(s1,s2)}
!!!ENC: Berenika Jozajtis
!!!END: 2022-08-15
!!!ENC: Jan Barakat
!!!END: 2022-11-16
!!!YEC: Copyright 2022 Narodowy Instytut Fryderyka Chopina (https://polishscores.org)
!!!YEM: License CC-BY-4.0 (https://creativecommons.org/licenses/by/4.0)
